!!!OTL: 203g. Erfahrung beim Kirmestanz.
!!!ODT: 1846
!!!ARE: Europa, Mitteleuropa, Deutschland, Frankfurt a.d. Oder, Seelow
!!!SCT: E0203F
!!!TXL: @@DE
!!!YEM: Copyright 1995, estate of Helmut Schaffrath.
**kern	**text
*ICvox	*
*M3/4	*
*k[b-]	*
*F:	*
!LO:TX:a:t=Aus Seelow bei Frankfurt a. d. O. 1846	!
{8c	Jch
=1	=1
8f	ging
8f	wol
4a	hin
4cc	wo
=2	=2
8b-	Kir-
8dd	-meß
8ccL	iſt,
8b-	.
8aJ}	.
{8c	ich
=3	=3
8f	ging
8g	wol
4a	hin
4cc	wo
=4	=4
8g	Kir-
8g	-meß
4f	iſt;
8r}	.
{8c	Jch
=5	=5
8f	ſucht
8g	mein
4a	Liebchen,
8cc	.
8a	fand's
=6	=6
8g	a-
8c	-ber,
8g	a-
8c	-ber
8;r}	.
{8c	ich
=7	=7
8f	ſucht
8g	mein
4a	Liebchen,
4cc	.
=8	=8
8g	fand's
16g	a-
16g	-ber
4f	nicht.
8r}	.
==	==
!!!AGN: erzaehlendes Volks - Lied, Todes - Ahnung; betrogene Liebe
!!!ONB: ESAC (Essen Associative Code) Database: ERK1
!!!AMT: simple triple
!!!AIN: vox
!!!EED: Helmut Schaffrath
!!!EEV: 1.0
!!!GTL: Todtensagen (Todesahnung, Geisterliebe, Grabesstimmen)
!!!URL-scan: https://rosdok.uni-rostock.de/mcrviewer/recordIdentifier/rosdok_ppn745146120/iview2/phys_0678.iview2?x=-128.7727644188933&y=-1.3350724093616009&scale=0.5870222003877484&rotation=0&layout=singlePageLayout
!!!ENC: Anna Maria Matuszewska
!!!EEV: 2024/06/12
*-	*-
